X:1
T:Title
%%score { ( 1 3 ) | ( 2 4 ) }
L:1/8
Q:1/4=90
M:6/8
K:F
V:1 treble nm="Grand Piano"
V:3 treble 
V:2 bass 
V:4 bass 
V:1
 c>cc cBA | [EG][FA][GB] [FA]3 | [DF][DF][DF] [^CF][CF][CG] | A6 | [EB]>[EB][EB] [EB][FA][EG] | %5
w: Mrs.~C.~H.~Morris * * * * *|||||
 Acc c3 | =B>AG GdB | c2- [Fc-] [Gc]3 | c2 c cB[FA] | [EB]6 | [GB]3 z3 | [Bd]3 z3 | A2 A A_A=A | %13
w: ||||||||
 B2 B B3 | G2 G GAB | d2 d c3 | [Ac]3 z3 | [Fd]3 f3 | c>cc c2 A | [EG]3 z3 |] %20
w: |||||||
V:2
 [F,A,F]>[F,A,F][F,A,F] [F,A,F][F,DF][F,CF] | [C,C][C,C][C,C] [F,C]3 | %2
 [B,,B,][B,,B,][B,,B,] [B,,B,][B,,B,][B,,F,] | [F,C]6 | [C,G,]>[C,G,][C,G,] [C,G,][C,C][C,C] | %5
 [F,CF][F,A,F][F,A,F] [F,A,F]3 | [G,DF]>[G,CF][G,=B,F] [G,B,F][G,B,F][G,F] | G,2 A, B,3 | %8
 F2 F FFC | G,G,G, G,3 | C,C,C, z[K:treble] FG | [F,A,]F,F, F,3 | %12
 [F,CF]2[K:treble] [F,CF] [F,CF][F,=B,F][F,CF] | [G,CE]2 [G,CE] [G,CE]3 | %14
 [B,CE]2 [B,CE] [B,CE][A,CF][K:bass][G,CE] | [F,B,F]2 [F,B,F] [F,A,F]3 | [F,F]F,F,[K:treble] FGA | %17
 B,B,B, [B,DF]3 | [A,CF]>[A,CF][K:bass][G,B,E] [F,A,F]2 [F,CF] | .[C,C]3 [F,A,C]3 |] %20
V:3
 x6 | x6 | x6 | x6 | x6 | x6 | x6 | .E3 z3 | x6 | CCC C3 | CCC [EG]AB | z DF [FAc]3 | x6 | x6 | %14
 x6 | x6 | z FF ABc | x6 | x6 | z2 B, F3 |] %20
V:4
 x6 | x6 | x6 | x6 | x6 | x6 | x6 | C,6 | [F,A,]3 .[F,A,]3 | x6 | z3 .[C,C]3[K:treble] | x6 | %12
 x2[K:treble] x4 | x6 | x5[K:bass] x | x6 | z3[K:treble] .[F,C]3 | x6 | x2[K:bass] x4 | x6 |] %20

